images/icons/lightning-icon.svg

<svg width="44" height="66" viewBox="0 0 44 66" fill="none" xmlns="http://www.w3.org/2000/svg">
<path d="M10.7308 65.8114C10.2572 65.6078 9.86369 65.2494 9.61227 64.7927C9.36084 64.336 9.26586 63.8071 9.34231 63.2893L13.5542 35.3575H2.37647C2.0221 35.3672 1.67028 35.2939 1.34815 35.1432C1.02602 34.9925 0.742197 34.7684 0.518571 34.4882C0.294944 34.2081 0.137497 33.8793 0.0583768 33.5274C-0.0207433 33.1754 -0.0194209 32.8096 0.0622413 32.4583L7.00493 1.81582C7.1271 1.28846 7.42391 0.820076 7.84542 0.489504C8.26692 0.158932 8.78737 -0.0136382 9.31916 0.00084246H32.4615C32.8072 -0.000354887 33.1488 0.077363 33.4612 0.228286C33.7735 0.379208 34.0488 0.5995 34.2666 0.872974C34.4875 1.14954 34.6439 1.47353 34.724 1.82057C34.8042 2.16761 34.806 2.52865 34.7294 2.87652L30.7258 21.2149H41.7184C42.1521 21.214 42.5774 21.3373 42.9456 21.5706C43.3139 21.804 43.6104 22.1381 43.8012 22.5348C43.967 22.9156 44.0308 23.3343 43.9861 23.7484C43.9414 24.1624 43.7898 24.557 43.5466 24.892L13.4616 64.9629C13.2583 65.2699 12.9868 65.5238 12.6692 65.7039C12.3515 65.8841 11.9967 65.9856 11.6334 66C11.3237 65.9941 11.0178 65.9302 10.7308 65.8114ZM24.9402 25.9291L29.5687 4.71507H11.1705L5.2924 30.6433H18.9695L15.2899 54.8744L37.0899 25.9291H24.9402Z" fill="#EC7979"/>
</svg>

<svg xmlns="http://www.w3.org/2000/svg" width="44" height="66" fill="none"><path fill="#EC7979" d="M10.73 65.811a2.329 2.329 0 0 1-1.118-1.018 2.394 2.394 0 0 1-.27-1.504l4.212-27.931H2.376a2.279 2.279 0 0 1-1.028-.215 2.32 2.32 0 0 1-.83-.655 2.4 2.4 0 0 1-.456-2.03L7.005 1.816c.122-.528.419-.996.84-1.326.422-.331.942-.504 1.474-.49h23.142a2.28 2.28 0 0 1 1 .228c.313.151.588.372.806.645a2.4 2.4 0 0 1 .463 2.004l-4.004 18.338h10.992c.434-.001.86.122 1.228.356.368.233.664.567.855.964a2.397 2.397 0 0 1-.254 2.357l-30.085 40.07a2.33 2.33 0 0 1-.793.742c-.318.18-.672.282-1.036.296a2.483 2.483 0 0 1-.902-.189ZM24.94 25.93 29.57 4.715H11.17L5.292 30.643H18.97l-3.68 24.231 21.8-28.945H24.94Z"/></svg>
